; generated by PrusaSlicer 2.3.0+win64 on 2021-03-18 at 19:43:39 UTC


;
;

;
;
; 

; external perimeters extrusion width = 0.40mm
; perimeters extrusion width = 0.40mm
; infill extrusion width = 0.45mm
; solid infill extrusion width = 0.45mm
; top infill extrusion width = 0.40mm
; support material extrusion width = 0.30mm
; first layer extrusion width = 0.42mm

M73 P0 R347
M201 X1250 Y1250 Z400 E5000 ; sets maximum accelerations, mm/sec^2
M203 X180 Y180 Z12 E80 ; sets maximum feedrates, mm/sec
M204 P1250 R1250 T1250 ; sets acceleration (P, T) and retract acceleration (R), mm/sec^2
M205 X8.00 Y8.00 Z2.00 E10.00 ; sets the jerk limits, mm/sec
M205 S0 T0 ; sets the minimum extruding and travel feed rate, mm/sec
M107
;TYPE:Custom
G90 ; use absolute coordinates
M83 ; extruder relative mode
M104 S170 ; set extruder temp for bed leveling
M140 S60 ; set bed temp
M109 R170 ; wait for bed leveling temp
M190 S60 ; wait for bed temp
G28 ; home all without mesh bed level
G29 ; mesh bed leveling 
M104 S215 ; set extruder temp
G92 E0.0
G1 Y-2.0 X179 F2400
G1 Z3 F720
M109 S215 ; wait for extruder temp

; intro line
G1 X170 F1000
G1 Z0.2 F720
G1 X110.0 E8.0 F900
G1 X40.0 E10.0 F700
G92 E0.0

M221 S95 ; set flow
G21 ; set units to millimeters
G90 ; use absolute coordinates
M83 ; use relative distances for extrusion
M900 K0.2 ; Filament gcode LA 1.5
; ; Filament gcode LA 1.0
;LAYER_CHANGE
;Z:0.2
;HEIGHT:0.2
;BEFORE_LAYER_CHANGE
G92 E0.0
;0.2


G1 Z0.200 F9000.000
;AFTER_LAYER_CHANGE
;0.2
G1 E-3.20000 F4200.000
G1 Z0.400 F9000.000
G1 X105.413 Y150.947
G1 Z0.200
G1 E3.20000 F2400.000
M204 S800
;TYPE:Skirt
;WIDTH:0.42
G1 F1200.000
G1 X85.451 Y150.800 E0.62593
M73 P0 R346
G1 X84.948 Y150.741 E0.01585
G1 X58.511 Y140.545 E0.88843
G1 X57.598 Y140.118 E0.03161
G1 X56.661 Y139.468 E0.03576
G1 X13.049 Y102.872 E1.78507
G1 X12.202 Y101.992 E0.03829
G1 X11.527 Y100.938 E0.03926
G1 X11.069 Y99.760 E0.03962
G1 X10.869 Y98.643 E0.03556
G1 X10.894 Y97.233 E0.04423
G1 X11.188 Y95.996 E0.03986
G1 X11.740 Y94.814 E0.04092
G1 X12.456 Y93.846 E0.03771
G1 X52.130 Y49.244 E1.87168
G1 X54.432 Y46.776 E0.10583
G1 X56.943 Y44.425 E0.10785
G1 X60.359 Y41.702 E0.13695
G1 X62.364 Y40.302 E0.07670
G1 X64.885 Y38.750 E0.09280
G1 X68.297 Y36.948 E0.12098
G1 X71.855 Y35.408 E0.12157
G1 X75.429 Y34.178 E0.11850
G1 X78.366 Y33.381 E0.09544
G1 X80.684 Y32.898 E0.07423
G1 X85.092 Y32.255 E0.13968
G1 X88.761 Y32.031 E0.11523
G1 X91.920 Y32.051 E0.09907
G1 X95.484 Y32.315 E0.11205
G1 X98.675 Y32.769 E0.10106
G1 X102.122 Y33.499 E0.11047
G1 X105.326 Y34.409 E0.10444
G1 X105.992 Y34.690 E0.02267
G1 X122.943 Y46.974 E0.65638
G1 X125.443 Y48.977 E0.10043
G1 X127.876 Y51.173 E0.10276
G1 X130.122 Y53.459 E0.10048
G1 X167.494 Y93.789 E1.72396
G1 X168.229 Y94.763 E0.03829
G1 X168.704 Y95.726 E0.03366
G1 X169.100 Y97.190 E0.04754
G1 X169.145 Y98.517 E0.04164
G1 X168.866 Y99.955 E0.04592
G1 X168.481 Y100.923 E0.03266
G1 X167.912 Y101.833 E0.03366
G1 X166.908 Y102.909 E0.04613
G1 X123.278 Y139.517 E1.78576
G1 X106.363 Y150.596 E0.63398
G1 X105.907 Y150.823 E0.01597
G1 X105.471 Y150.932 E0.01409
M204 S1250
; printing object Car_Mask_Case_Buttom.stl id:0 copy 0
G1 E-2.24000 F4200.000
;WIPE_START
G1 F7200.000
G1 X103.826 Y150.922 E-0.91200
;WIPE_END
G1 E-0.04800 F4200.000
G1 Z0.400 F9000.000
G1 X85.475 Y138.453
G1 Z0.200
G1 E3.20000 F2400.000
M204 S800
;TYPE:Support material
G1 F1200.000
G1 X85.475 Y148.423 E0.31260
G1 X86.229 Y148.423 E0.02365
G1 X86.229 Y138.627 E0.30715
G1 X86.983 Y138.631 E0.02365
G1 X86.983 Y148.423 E0.30702
G1 X87.738 Y148.423 E0.02365
G1 X87.738 Y138.636 E0.30689
G1 X88.492 Y138.633 E0.02365
G1 X88.492 Y148.423 E0.30696
G1 X89.246 Y148.423 E0.02365
G1 X89.246 Y138.631 E0.30704
G1 X90.000 Y138.628 E0.02365
G1 X90.000 Y148.423 E0.30713
G1 X90.754 Y148.423 E0.02365
G1 X90.754 Y138.625 E0.30721
G1 X90.781 Y138.625 E0.00084
G1 X90.781 Y142.368 E0.11737
G1 X91.032 Y142.619 E0.01113
G1 X91.508 Y142.619 E0.01494
G1 X91.508 Y148.423 E0.18198
G1 X92.262 Y148.423 E0.02365
G1 X92.262 Y142.619 E0.18198
G1 X93.017 Y142.619 E0.02365
G1 X93.017 Y148.423 E0.18198
G1 X93.771 Y148.423 E0.02365
G1 X93.771 Y142.619 E0.18198
G1 X94.525 Y142.619 E0.02365
G1 X94.525 Y148.423 E0.18198
G1 X95.279 Y148.423 E0.02365
G1 X95.279 Y142.619 E0.18198
G1 X96.033 Y142.619 E0.02365
G1 X96.033 Y148.423 E0.18198
G1 X96.787 Y148.423 E0.02365
G1 X96.787 Y142.619 E0.18198
G1 X97.542 Y142.619 E0.02365
G1 X97.542 Y148.423 E0.18198
G1 X98.296 Y148.423 E0.02365
G1 X98.296 Y142.619 E0.18198
G1 X99.050 Y142.619 E0.02365
G1 X99.050 Y148.423 E0.18198
G1 X99.804 Y148.423 E0.02365
G1 X99.804 Y142.619 E0.18198
G1 X100.046 Y142.619 E0.00760
G1 X100.297 Y142.368 E0.01113
G1 X100.297 Y138.625 E0.11738
G1 X100.558 Y138.625 E0.00818
G1 X100.558 Y148.423 E0.30720
G1 X101.312 Y148.423 E0.02365
G1 X101.312 Y138.628 E0.30714
G1 X102.067 Y138.630 E0.02365
G1 X102.067 Y148.423 E0.30708
G1 X102.821 Y148.423 E0.02365
G1 X102.821 Y138.632 E0.30701
G1 X103.575 Y138.634 E0.02365
G1 X103.575 Y148.423 E0.30695
G1 X104.329 Y148.423 E0.02365
G1 X104.329 Y138.636 E0.30688
G1 X105.083 Y138.633 E0.02365
G1 X105.083 Y148.593 E0.31230
M204 S1250
G1 E-2.24000 F4200.000
;WIPE_START
G1 F7200.000
G1 X105.083 Y146.947 E-0.91200
;WIPE_END
G1 E-0.04800 F4200.000
G1 Z0.400 F9000.000
G1 X98.705 Y141.027
G1 Z0.200
G1 E3.20000 F2400.000
M204 S800
;TYPE:Perimeter
G1 F1200.000
G1 X92.373 Y141.027 E0.19851
G1 X92.373 Y137.027 E0.12542
G1 X87.776 Y137.043 E0.14417
G1 X84.013 Y137.022 E0.11796
G1 X60.774 Y137.022 E0.72867
G1 X60.306 Y136.981 E0.01471
G1 X59.902 Y136.873 E0.01311
G1 X59.523 Y136.696 E0.01311
G1 X59.139 Y136.427 E0.01471
G1 X15.664 Y99.948 E1.77942
G1 X15.285 Y99.558 E0.01706
G1 X15.024 Y99.149 E0.01520
G1 X14.850 Y98.697 E0.01520
G1 X14.771 Y98.219 E0.01520
G1 X14.790 Y97.734 E0.01520
G1 X14.906 Y97.264 E0.01520
G1 X15.114 Y96.826 E0.01520
G1 X15.441 Y96.392 E0.01705
G1 X48.661 Y60.545 E1.53236
G1 X49.466 Y59.075 E0.05257
G1 X50.943 Y56.661 E0.08873
G1 X52.778 Y54.058 E0.09984
G1 X54.775 Y51.600 E0.09930
G1 X56.940 Y49.277 E0.09958
G1 X59.265 Y47.099 E0.09987
G1 X61.716 Y45.100 E0.09917
G1 X64.307 Y43.263 E0.09960
G1 X67.028 Y41.600 E0.09998
G1 X67.376 Y41.406 E0.01250
G1 X70.217 Y39.957 E0.10000
G1 X73.137 Y38.710 E0.09955
G1 X76.135 Y37.664 E0.09955
G1 X79.198 Y36.824 E0.09959
G1 X82.300 Y36.196 E0.09923
G1 X85.457 Y35.778 E0.09986
G1 X88.204 Y35.598 E0.08630
G1 X89.068 Y35.578 E0.02712
G1 X91.800 Y35.591 E0.08566
G1 X94.561 Y35.788 E0.08679
G1 X94.962 Y35.820 E0.01262
G1 X98.110 Y36.266 E0.09968
G1 X101.216 Y36.923 E0.09955
G1 X104.225 Y37.777 E0.09807
G1 X104.394 Y37.854 E0.00581
G1 X104.503 Y37.938 E0.00432
G1 X104.590 Y38.044 E0.00432
G1 X104.651 Y38.168 E0.00432
G1 X104.682 Y38.302 E0.00432
G1 X104.681 Y38.440 E0.00432
G1 X104.634 Y38.640 E0.00643
G1 X103.535 Y41.658 E0.10070
G1 X106.020 Y42.460 E0.08186
G1 X107.505 Y42.979 E0.04933
G1 X110.290 Y44.096 E0.09408
G1 X112.997 Y45.372 E0.09384
G1 X115.625 Y46.805 E0.09384
G1 X118.163 Y48.390 E0.09384
G1 X120.604 Y50.122 E0.09384
G1 X122.942 Y51.998 E0.09398
G1 X125.160 Y54.004 E0.09377
G1 X127.268 Y56.149 E0.09431
G1 X164.559 Y96.392 E1.72022
G1 X164.886 Y96.826 E0.01706
G1 X165.094 Y97.264 E0.01520
G1 X165.210 Y97.734 E0.01520
G1 X165.229 Y98.219 E0.01520
G1 X165.150 Y98.697 E0.01520
G1 X164.976 Y99.149 E0.01520
G1 X164.715 Y99.558 E0.01520
G1 X164.336 Y99.948 E0.01706
G1 X120.861 Y136.427 E1.77942
G1 X120.477 Y136.696 E0.01471
G1 X120.098 Y136.873 E0.01311
G1 X119.694 Y136.981 E0.01311
G1 X119.226 Y137.022 E0.01471
G1 X109.289 Y137.022 E0.31158
G1 X104.345 Y137.043 E0.15502
G1 X98.705 Y137.028 E0.17684
G1 X98.705 Y140.967 E0.12351
M204 S1250
G1 E-2.24000 F4200.000
;WIPE_START
G1 F7200.000
G1 X97.059 Y140.982 E-0.91200
;WIPE_END
G1 E-0.04800 F4200.000
G1 Z0.400 F9000.000
G1 X104.023 Y41.419
G1 Z0.200
G1 E3.20000 F2400.000
M204 S800
G1 F1200.000
G1 X106.140 Y42.103 E0.06973
G1 X107.637 Y42.626 E0.04974
G1 X110.441 Y43.750 E0.09470
G1 X113.168 Y45.035 E0.09454
G1 X115.815 Y46.479 E0.09454
G1 X118.372 Y48.076 E0.09454
G1 X120.831 Y49.821 E0.09454
G1 X123.186 Y51.711 E0.09467
G1 X125.421 Y53.732 E0.09447
G1 X127.541 Y55.889 E0.09483
G1 X164.848 Y96.149 E1.72099
G1 X165.211 Y96.629 E0.01886
G1 X165.451 Y97.136 E0.01760
G1 X165.585 Y97.681 E0.01760
G1 X165.607 Y98.242 E0.01760
G1 X165.515 Y98.796 E0.01760
G1 X165.314 Y99.320 E0.01760
G1 X165.012 Y99.793 E0.01760
G1 X164.593 Y100.224 E0.01886
G1 X121.091 Y136.727 E1.78054
M73 P0 R345
G1 X120.666 Y137.024 E0.01626
G1 X120.227 Y137.229 E0.01518
G1 X119.760 Y137.354 E0.01518
G1 X119.243 Y137.399 E0.01626
G1 X109.290 Y137.399 E0.31207
G1 X104.345 Y137.420 E0.15504
G1 X99.082 Y137.406 E0.16503
G1 X99.082 Y141.404 E0.12535
G1 X91.996 Y141.404 E0.22216
G1 X91.996 Y137.405 E0.12537
G1 X87.775 Y137.420 E0.13235
G1 X84.012 Y137.399 E0.11798
G1 X60.757 Y137.399 E0.72915
G1 X60.240 Y137.354 E0.01626
G1 X59.773 Y137.229 E0.01518
G1 X59.334 Y137.024 E0.01518
G1 X58.909 Y136.727 E0.01626
G1 X15.407 Y100.224 E1.78054
G1 X14.988 Y99.793 E0.01886
G1 X14.686 Y99.320 E0.01760
G1 X14.485 Y98.796 E0.01760
G1 X14.393 Y98.242 E0.01760
G1 X14.415 Y97.681 E0.01760
G1 X14.549 Y97.136 E0.01760
G1 X14.789 Y96.629 E0.01760
G1 X15.152 Y96.149 E0.01886
G1 X48.353 Y60.323 E1.53150
G1 X49.140 Y58.886 E0.05139
G1 X50.628 Y56.453 E0.08939
G1 X52.475 Y53.833 E0.10054
G1 X54.490 Y51.352 E0.10020
G1 X56.673 Y49.010 E0.10037
G1 X59.014 Y46.818 E0.10055
G1 X61.488 Y44.799 E0.10012
G1 X64.100 Y42.948 E0.10038
G1 X66.838 Y41.275 E0.10061
G1 X67.199 Y41.073 E0.01296
G1 X70.058 Y39.615 E0.10063
G1 X73.001 Y38.358 E0.10035
G1 X76.023 Y37.304 E0.10035
G1 X79.110 Y36.457 E0.10038
G1 X82.241 Y35.823 E0.10016
G1 X85.420 Y35.403 E0.10054
G1 X88.187 Y35.221 E0.08694
G1 X89.065 Y35.201 E0.02753
G1 X91.814 Y35.214 E0.08622
G1 X95.004 Y35.445 E0.10027
G1 X98.175 Y35.894 E0.10043
G1 X101.307 Y36.557 E0.10035
G1 X104.355 Y37.422 E0.09935
G1 X104.589 Y37.528 E0.00806
G1 X104.768 Y37.665 E0.00705
G1 X104.910 Y37.839 E0.00705
G1 X105.009 Y38.041 E0.00705
G1 X105.059 Y38.260 E0.00705
G1 X105.058 Y38.485 E0.00705
G1 X104.995 Y38.748 E0.00848
G1 X104.044 Y41.363 E0.08724
M204 S1250
G1 X104.511 Y41.180 F9000.000
M204 S800
;TYPE:External perimeter
G1 F1200.000
G1 X106.260 Y41.745 E0.05761
G1 X107.770 Y42.273 E0.05015
G1 X110.591 Y43.404 E0.09532
G1 X113.339 Y44.699 E0.09523
G1 X116.005 Y46.153 E0.09523
G1 X118.582 Y47.762 E0.09523
G1 X121.059 Y49.520 E0.09523
G1 X123.431 Y51.424 E0.09537
G1 X125.682 Y53.459 E0.09516
G1 X127.814 Y55.628 E0.09535
G1 X165.138 Y95.907 E1.72176
G1 X165.535 Y96.433 E0.02066
G1 X165.808 Y97.009 E0.02000
G1 X165.961 Y97.629 E0.02000
G1 X165.985 Y98.266 E0.02000
G1 X165.881 Y98.895 E0.02000
G1 X165.653 Y99.491 E0.02000
G1 X165.309 Y100.028 E0.02000
G1 X164.850 Y100.501 E0.02066
G1 X121.321 Y137.026 E1.78165
G1 X120.855 Y137.352 E0.01781
G1 X120.357 Y137.584 E0.01725
G1 X119.825 Y137.727 E0.01725
G1 X119.259 Y137.776 E0.01781
G1 X109.291 Y137.776 E0.31256
G1 X104.345 Y137.797 E0.15505
G1 X99.459 Y137.784 E0.15322
G1 X99.459 Y141.781 E0.12532
G1 X91.619 Y141.781 E0.24580
G1 X91.619 Y137.784 E0.12533
G1 X87.775 Y137.797 E0.12054
G1 X84.011 Y137.776 E0.11801
G1 X60.741 Y137.776 E0.72963
G1 X60.175 Y137.727 E0.01781
G1 X59.643 Y137.584 E0.01725
G1 X59.145 Y137.352 E0.01725
G1 X58.679 Y137.026 E0.01781
G1 X15.150 Y100.501 E1.78165
G1 X14.691 Y100.028 E0.02066
G1 X14.347 Y99.491 E0.02000
G1 X14.119 Y98.895 E0.02000
G1 X14.015 Y98.266 E0.02000
G1 X14.039 Y97.629 E0.02000
G1 X14.192 Y97.009 E0.02000
G1 X14.465 Y96.433 E0.02000
G1 X14.862 Y95.907 E0.02066
G1 X48.044 Y60.101 E1.53063
G1 X48.814 Y58.697 E0.05021
G1 X50.312 Y56.246 E0.09006
G1 X52.173 Y53.607 E0.10124
G1 X54.206 Y51.104 E0.10110
G1 X56.406 Y48.744 E0.10116
G1 X58.762 Y46.537 E0.10123
G1 X61.260 Y44.499 E0.10107
G1 X63.892 Y42.633 E0.10117
G1 X66.647 Y40.949 E0.10125
G1 X67.021 Y40.741 E0.01341
G1 X69.898 Y39.273 E0.10125
G1 X72.864 Y38.006 E0.10115
G1 X75.911 Y36.943 E0.10116
G1 X79.022 Y36.090 E0.10117
G1 X82.182 Y35.451 E0.10109
G1 X85.383 Y35.027 E0.10122
G1 X88.170 Y34.844 E0.08759
G1 X89.061 Y34.824 E0.02795
G1 X91.829 Y34.837 E0.08677
G1 X95.046 Y35.070 E0.10113
G1 X98.241 Y35.523 E0.10119
G1 X101.397 Y36.191 E0.10116
G1 X104.485 Y37.067 E0.10064
G1 X104.785 Y37.203 E0.01031
G1 X105.032 Y37.393 E0.00978
G1 X105.229 Y37.634 E0.00978
G1 X105.367 Y37.914 E0.00978
G1 X105.436 Y38.218 E0.00978
G1 X105.435 Y38.530 E0.00978
G1 X105.357 Y38.857 E0.01052
G1 X104.532 Y41.124 E0.07565
M204 S1250
G1 X104.386 Y41.560 F9000.000
G1 E-2.24000 F4200.000
;WIPE_START
G1 F7200.000
G1 X106.081 Y41.681 E-0.91200
;WIPE_END
G1 E-0.04800 F4200.000
G1 Z0.400 F9000.000
G1 X129.768 Y59.013
G1 Z0.200
G1 E3.20000 F2400.000
M204 S800
;TYPE:Solid infill
;WIDTH:0.421277
G1 F1200.000
G1 X124.955 Y54.199 E0.21416
G1 X122.758 Y52.213 E0.09316
G1 X121.116 Y50.896 E0.06624
G1 X133.373 Y63.153 E0.54536
G1 X140.132 Y70.447 E0.31284
G1 X119.055 Y49.370 E0.93777
G1 X118.006 Y48.626 E0.04045
G1 X117.392 Y48.242 E0.02279
G1 X146.891 Y77.741 E1.31247
G1 X153.650 Y85.035 E0.31284
G1 X115.967 Y47.352 E1.67659
G1 X115.482 Y47.049 E0.01799
G1 X114.705 Y46.626 E0.02783
G1 X160.409 Y92.329 E2.03343
G1 X164.342 Y96.573 E0.18204
G1 X164.643 Y96.973 E0.01576
G1 X164.757 Y97.212 E0.00832
G1 X113.528 Y45.984 E2.27925
G1 X112.869 Y45.624 E0.02362
G1 X112.424 Y45.414 E0.01549
G1 X164.934 Y97.925 E2.33630
G1 X164.945 Y98.201 E0.00869
G1 X164.907 Y98.432 E0.00738
G1 X111.412 Y44.937 E2.38009
G1 X110.400 Y44.460 E0.03520
G1 X164.788 Y98.849 E2.41985
M73 P0 R344
G1 X164.722 Y99.021 E0.00580
G1 X164.607 Y99.202 E0.00676
G1 X109.480 Y44.076 E2.45267
G1 X108.587 Y43.717 E0.03029
G1 X164.373 Y99.504 E2.48203
G1 X164.143 Y99.740 E0.01038
G1 X164.106 Y99.771 E0.00153
G1 X107.693 Y43.359 E2.50989
G1 X106.848 Y43.049 E0.02832
G1 X163.815 Y100.016 E2.53455
G1 X163.524 Y100.260 E0.01195
G1 X106.026 Y42.762 E2.55819
G1 X105.232 Y42.503 E0.02628
G1 X163.233 Y100.504 E2.58057
G1 X162.942 Y100.748 E0.01195
G1 X104.178 Y41.984 E2.61451
M204 S1250
G1 E-2.24000 F4200.000
;WIPE_START
G1 F7200.000
G1 X105.342 Y43.148 E-0.91200
;WIPE_END
G1 E-0.04800 F4200.000
G1 Z0.400 F9000.000
G1 X104.529 Y38.590
G1 Z0.200
G1 E3.20000 F2400.000
M204 S800
G1 F1200.000
G1 X103.926 Y37.986 E0.02686
G1 X103.178 Y37.774 E0.02443
G1 X104.256 Y38.851 E0.04793
G1 X104.113 Y39.244 E0.01313
G1 X102.431 Y37.562 E0.07482
G1 X101.684 Y37.350 E0.02443
G1 X103.970 Y39.636 E0.10171
G1 X103.827 Y40.028 E0.01313
G1 X100.956 Y37.157 E0.12774
G1 X100.278 Y37.013 E0.02183
G1 X103.685 Y40.420 E0.15158
G1 X103.542 Y40.813 E0.01313
G1 X99.599 Y36.870 E0.17543
G1 X98.920 Y36.726 E0.02183
G1 X103.531 Y41.337 E0.20516
M204 S1250
G1 E-2.24000 F4200.000
;WIPE_START
G1 F7200.000
G1 X102.368 Y40.174 E-0.91200
;WIPE_END
G1 E-0.04800 F4200.000
G1 Z0.400 F9000.000
G1 X98.027 Y36.368
G1 Z0.200
G1 E3.20000 F2400.000
M204 S800
G1 F1200.000
G1 X162.651 Y100.992 E2.87524
G1 X162.360 Y101.236 E0.01195
G1 X97.603 Y36.480 E2.88114
G1 X96.980 Y36.391 E0.01980
G1 X162.069 Y101.480 E2.89593
G1 X161.778 Y101.724 E0.01195
G1 X96.357 Y36.303 E2.91071
G1 X95.734 Y36.215 E0.01980
G1 X161.487 Y101.969 E2.92550
G1 X161.196 Y102.213 E0.01195
G1 X95.110 Y36.127 E2.94028
M73 P0 R343
G1 X94.520 Y36.072 E0.01865
G1 X160.905 Y102.457 E2.95360
G1 X160.614 Y102.701 E0.01195
G1 X93.943 Y36.030 E2.96632
M73 P1 R343
G1 X93.366 Y35.988 E0.01820
G1 X160.323 Y102.945 E2.97904
G1 X160.032 Y103.189 E0.01195
G1 X92.789 Y35.946 E2.99177
G1 X92.212 Y35.904 E0.01820
G1 X159.741 Y103.433 E3.00449
G1 X159.451 Y103.678 E0.01195
G1 X91.646 Y35.873 E3.01675
G1 X91.108 Y35.870 E0.01691
G1 X159.160 Y103.922 E3.02773
G1 X158.869 Y104.166 E0.01195
G1 X90.571 Y35.868 E3.03870
G1 X90.033 Y35.865 E0.01691
G1 X158.578 Y104.410 E3.04968
G1 X158.287 Y104.654 E0.01195
G1 X89.495 Y35.863 E3.06066
G1 X88.961 Y35.863 E0.01682
G1 X157.996 Y104.898 E3.07150
G1 X157.705 Y105.142 E0.01195
G1 X88.438 Y35.875 E3.08183
G1 X87.927 Y35.899 E0.01609
G1 X157.414 Y105.386 E3.09162
M73 P1 R342
G1 X157.123 Y105.631 E0.01195
G1 X87.425 Y35.932 E3.10101
G1 X86.923 Y35.965 E0.01583
