; generated by PrusaSlicer 2.3.0+win64 on 2021-03-10 at 20:17:24 UTC


;
;

;
;
; 

; external perimeters extrusion width = 0.40mm
; perimeters extrusion width = 0.40mm
; infill extrusion width = 0.45mm
; solid infill extrusion width = 0.45mm
; top infill extrusion width = 0.40mm
; support material extrusion width = 0.30mm
; first layer extrusion width = 0.42mm

M73 P0 R50
M201 X1250 Y1250 Z400 E5000 ; sets maximum accelerations, mm/sec^2
M203 X180 Y180 Z12 E80 ; sets maximum feedrates, mm/sec
M204 P1250 R1250 T1250 ; sets acceleration (P, T) and retract acceleration (R), mm/sec^2
M205 X8.00 Y8.00 Z2.00 E10.00 ; sets the jerk limits, mm/sec
M205 S0 T0 ; sets the minimum extruding and travel feed rate, mm/sec
M107
;TYPE:Custom
G90 ; use absolute coordinates
M83 ; extruder relative mode
M104 S170 ; set extruder temp for bed leveling
M140 S60 ; set bed temp
M109 R170 ; wait for bed leveling temp
M190 S60 ; wait for bed temp
G28 ; home all without mesh bed level
G29 ; mesh bed leveling 
M104 S215 ; set extruder temp
G92 E0.0
G1 Y-2.0 X179 F2400
G1 Z3 F720
M109 S215 ; wait for extruder temp

; intro line
G1 X170 F1000
G1 Z0.2 F720
G1 X110.0 E8.0 F900
G1 X40.0 E10.0 F700
G92 E0.0

M221 S95 ; set flow
G21 ; set units to millimeters
G90 ; use absolute coordinates
M83 ; use relative distances for extrusion
M900 K0.2 ; Filament gcode LA 1.5
; ; Filament gcode LA 1.0
;LAYER_CHANGE
;Z:0.2
;HEIGHT:0.2
;BEFORE_LAYER_CHANGE
G92 E0.0
;0.2


G1 Z0.200 F9000.000
;AFTER_LAYER_CHANGE
;0.2
G1 E-3.20000 F4200.000
G1 Z0.400 F9000.000
G1 X70.014 Y81.295
G1 Z0.200
G1 E3.20000 F2400.000
M204 S800
;TYPE:Skirt
;WIDTH:0.42
G1 F1200.000
G1 X70.230 Y80.533 E0.02484
G1 X70.681 Y79.886 E0.02473
G1 X78.837 Y72.300 E0.34925
G1 X79.586 Y71.832 E0.02767
G1 X80.453 Y71.669 E0.02767
G1 X96.836 Y73.335 E0.51635
G1 X102.199 Y75.442 E0.18064
G1 X113.781 Y85.083 E0.47251
G1 X117.801 Y89.344 E0.18368
G1 X118.196 Y90.048 E0.02532
G1 X118.333 Y90.844 E0.02532
G1 X118.130 Y93.721 E0.09044
G1 X118.012 Y94.198 E0.01538
G1 X117.801 Y94.636 E0.01526
G1 X117.409 Y95.120 E0.01953
G1 X109.425 Y102.541 E0.34177
G1 X108.913 Y102.889 E0.01941
G1 X108.329 Y103.093 E0.01941
G1 X78.293 Y103.490 E0.94182
G1 X77.646 Y103.402 E0.02048
G1 X77.044 Y103.138 E0.02060
G1 X76.571 Y102.757 E0.01906
G1 X72.873 Y98.778 E0.17033
G1 X72.583 Y98.377 E0.01550
G1 X72.382 Y97.922 E0.01562
G1 X71.138 Y93.502 E0.14397
G1 X70.020 Y81.355 E0.38247
M204 S1250
; printing object dino.stl id:0 copy 0
G1 E-2.24000 F4200.000
;WIPE_START
G1 F7200.000
G1 X70.230 Y80.533 E-0.47029
G1 X70.681 Y79.886 E-0.43702
G1 X70.687 Y79.880 E-0.00469
;WIPE_END
G1 E-0.04800 F4200.000
G1 Z0.400 F9000.000
G1 X81.346 Y76.298
G1 Z0.200
G1 E3.20000 F2400.000
M204 S800
;TYPE:Support material
G1 F1200.000
G1 X81.346 Y77.027 E0.02285
G1 X82.100 Y77.838 E0.03473
G1 X82.100 Y75.829 E0.06301
G1 X82.234 Y75.704 E0.00573
G1 X82.235 Y75.677 E0.00085
G1 X82.854 Y75.677 E0.01942
G1 X82.854 Y78.650 E0.09320
G1 X83.098 Y78.912 E0.01122
G1 X83.098 Y78.300 E0.01917
G1 X83.608 Y78.300 E0.01601
G1 X83.608 Y75.677 E0.08224
G1 X84.362 Y75.677 E0.02365
G1 X84.362 Y78.300 E0.08224
G1 X85.117 Y78.300 E0.02365
G1 X85.117 Y75.677 E0.08224
G1 X85.871 Y75.677 E0.02365
G1 X85.871 Y78.300 E0.08224
G1 X86.625 Y78.300 E0.02365
G1 X86.625 Y75.677 E0.08224
G1 X87.379 Y75.677 E0.02365
G1 X87.379 Y78.300 E0.08224
G1 X88.133 Y78.300 E0.02365
G1 X88.133 Y75.677 E0.08224
G1 X88.887 Y75.677 E0.02365
G1 X88.887 Y78.300 E0.08224
G1 X89.642 Y78.300 E0.02365
G1 X89.642 Y75.677 E0.08224
G1 X90.396 Y75.677 E0.02365
G1 X90.396 Y78.300 E0.08224
G1 X91.150 Y78.300 E0.02365
G1 X91.150 Y75.677 E0.08224
G1 X91.904 Y75.677 E0.02365
G1 X91.904 Y78.300 E0.08224
G1 X92.658 Y78.300 E0.02365
G1 X92.658 Y75.677 E0.08224
G1 X93.412 Y75.677 E0.02365
G1 X93.412 Y78.300 E0.08224
G1 X94.166 Y78.300 E0.02365
G1 X94.166 Y75.677 E0.08224
G1 X94.921 Y75.677 E0.02365
G1 X94.921 Y80.089 E0.13834
G1 X95.675 Y80.089 E0.02365
G1 X95.675 Y75.677 E0.13834
G1 X96.429 Y75.677 E0.02365
G1 X96.429 Y80.089 E0.13834
G1 X97.183 Y80.089 E0.02365
G1 X97.183 Y77.467 E0.08224
G1 X97.937 Y77.467 E0.02365
G1 X97.937 Y80.089 E0.08224
G1 X98.046 Y80.089 E0.00342
G1 X97.989 Y80.028 E0.00263
G1 X98.002 Y79.673 E0.01113
G1 X98.691 Y79.032 E0.02951
G1 X98.691 Y77.467 E0.04910
G1 X99.446 Y77.467 E0.02365
G1 X99.446 Y78.331 E0.02712
G1 X99.727 Y78.070 E0.01205
G1 X100.082 Y78.083 E0.01113
G1 X100.200 Y78.210 E0.00543
G1 X100.200 Y77.467 E0.02330
G1 X100.954 Y77.467 E0.02365
G1 X100.954 Y79.270 E0.05655
M204 S1250
G1 E-2.24000 F4200.000
;WIPE_START
G1 F7200.000
G1 X100.954 Y77.624 E-0.91200
;WIPE_END
G1 E-0.04800 F4200.000
G1 Z0.400 F9000.000
G1 X99.059 Y81.448
M73 P0 R49
G1 Z0.200
G1 E3.20000 F2400.000
M204 S800
;TYPE:Support material interface
;WIDTH:0.3
G1 F1200.000
G1 X99.059 Y81.114 E0.00713
G1 X98.570 Y80.588 E0.01536
G1 X98.570 Y81.707 E0.02392
G1 X98.081 Y82.140 E0.01396
G1 X98.081 Y80.423 E0.03671
G1 X97.591 Y80.423 E0.01046
G1 X97.591 Y82.593 E0.04639
G1 X97.102 Y83.048 E0.01428
G1 X97.102 Y80.423 E0.05611
G1 X96.613 Y80.423 E0.01046
G1 X96.613 Y83.502 E0.06584
G1 X96.124 Y83.957 E0.01428
G1 X96.124 Y80.423 E0.07556
G1 X95.634 Y80.423 E0.01046
M73 P1 R49
G1 X95.634 Y84.378 E0.08456
G1 X95.145 Y83.852 E0.01536
G1 X95.145 Y80.423 E0.07331
G1 X94.656 Y80.423 E0.01046
G1 X94.656 Y83.326 E0.06206
G1 X94.569 Y83.232 E0.00273
G1 X94.250 Y83.221 E0.00681
G1 X94.166 Y83.299 E0.00245
G1 X94.166 Y78.633 E0.09973
G1 X93.677 Y78.633 E0.01046
G1 X93.677 Y83.754 E0.10946
G1 X93.188 Y84.209 E0.01428
G1 X93.188 Y78.633 E0.11918
G1 X92.699 Y78.633 E0.01046
G1 X92.699 Y83.865 E0.11184
G1 X92.209 Y83.339 E0.01536
G1 X92.209 Y78.633 E0.10059
G1 X91.720 Y78.633 E0.01046
G1 X91.720 Y82.813 E0.08934
G1 X91.231 Y82.286 E0.01536
G1 X91.231 Y78.633 E0.07809
G1 X90.742 Y78.633 E0.01046
G1 X90.742 Y81.773 E0.06711
G1 X90.435 Y81.761 E0.00655
G1 X90.252 Y81.932 E0.00534
G1 X90.252 Y78.633 E0.07051
G1 X89.763 Y78.633 E0.01046
G1 X89.763 Y82.386 E0.08023
G1 X89.274 Y82.841 E0.01428
G1 X89.274 Y78.633 E0.08995
G1 X88.785 Y78.633 E0.01046
G1 X88.785 Y82.447 E0.08152
G1 X88.295 Y81.920 E0.01536
G1 X88.295 Y78.633 E0.07027
G1 X87.806 Y78.633 E0.01046
G1 X87.806 Y81.394 E0.05902
G1 X87.317 Y80.868 E0.01536
G1 X87.317 Y78.633 E0.04777
G1 X86.827 Y78.633 E0.01046
G1 X86.827 Y80.398 E0.03773
G1 X86.564 Y80.389 E0.00564
G1 X86.338 Y80.598 E0.00658
G1 X86.338 Y78.633 E0.04200
G1 X85.849 Y78.633 E0.01046
G1 X85.849 Y81.053 E0.05173
G1 X85.409 Y81.462 E0.01285
G1 X85.360 Y81.409 E0.00154
G1 X85.360 Y78.633 E0.05934
G1 X84.870 Y78.633 E0.01046
G1 X84.870 Y80.883 E0.04809
G1 X84.381 Y80.357 E0.01536
G1 X84.381 Y78.633 E0.03684
G1 X83.892 Y78.633 E0.01046
G1 X83.892 Y80.022 E0.02968
M204 S1250
G1 E-2.24000 F4200.000
;WIPE_START
G1 F7200.000
G1 X83.892 Y78.633 E-0.76937
G1 X84.149 Y78.633 E-0.14263
;WIPE_END
G1 E-0.04800 F4200.000
G1 Z0.400 F9000.000
G1 X99.059 Y84.704
G1 Z0.200
G1 E3.20000 F2400.000
M204 S800
G1 F1200.000
G1 X99.059 Y85.272 E0.01213
G1 X99.482 Y85.726 E0.01326
G1 X99.548 Y85.664 E0.00195
G1 X99.548 Y84.427 E0.02644
G1 X100.038 Y83.972 E0.01428
G1 X100.038 Y85.209 E0.02644
G1 X100.527 Y84.755 E0.01428
G1 X100.527 Y83.518 E0.02644
G1 X101.016 Y83.063 E0.01428
G1 X101.016 Y85.023 E0.04191
M204 S1250
G1 E-2.24000 F4200.000
;WIPE_START
G1 F7200.000
G1 X101.016 Y83.377 E-0.91200
;WIPE_END
G1 E-0.04800 F4200.000
G1 Z0.400 F9000.000
G1 X100.671 Y86.735
G1 Z0.200
G1 E3.20000 F2400.000
M204 S800
;TYPE:Perimeter
;WIDTH:0.42
G1 F1200.000
G1 X106.869 Y93.403 E0.28543
G1 X112.146 Y88.497 E0.22589
G1 X114.304 Y90.788 E0.09869
G1 X112.943 Y92.054 E0.05829
G1 X114.131 Y93.332 E0.05471
G1 X111.872 Y95.432 E0.09670
G1 X109.525 Y92.806 E0.11041
G1 X106.534 Y95.587 E0.12806
G1 X108.931 Y98.166 E0.11039
G1 X107.903 Y99.121 E0.04400
G1 X106.715 Y97.843 E0.05471
G1 X105.346 Y99.115 E0.05859
G1 X96.651 Y89.762 E0.40043
G1 X95.333 Y90.987 E0.05644
G1 X94.172 Y89.739 E0.05345
G1 X92.833 Y90.983 E0.05732
G1 X91.472 Y89.518 E0.06271
G1 X90.174 Y90.725 E0.05556
G1 X89.084 Y89.553 E0.05017
G1 X87.693 Y90.847 E0.05957
G1 X86.399 Y89.455 E0.05957
G1 X85.073 Y90.688 E0.05678
G1 X83.872 Y89.396 E0.05531
G1 X82.635 Y90.546 E0.05296
G1 X81.453 Y89.275 E0.05443
G1 X77.096 Y93.325 E0.18651
G1 X78.278 Y94.596 E0.05443
G1 X77.276 Y95.528 E0.04291
G1 X75.137 Y93.228 E0.09848
G1 X76.468 Y91.991 E0.05697
G1 X75.265 Y90.696 E0.05540
G1 X77.828 Y88.313 E0.10974
G1 X76.467 Y86.849 E0.06271
G1 X77.767 Y85.639 E0.05569
G1 X76.542 Y84.322 E0.05641
G1 X77.565 Y83.371 E0.04376
G1 X78.790 Y84.689 E0.05641
G1 X81.853 Y81.842 E0.13113
G1 X80.628 Y80.524 E0.05641
G1 X81.590 Y79.629 E0.04120
G1 X85.329 Y83.651 E0.17217
G1 X86.649 Y82.424 E0.05650
G1 X89.128 Y85.091 E0.11418
G1 X90.520 Y83.797 E0.05960
G1 X93.017 Y86.482 E0.11496
G1 X94.336 Y85.256 E0.05646
G1 X95.571 Y86.585 E0.05690
G1 X96.963 Y85.292 E0.05957
G1 X99.402 Y87.915 E0.11231
G1 X100.627 Y86.776 E0.05246
M204 S1250
G1 E-2.24000 F4200.000
;WIPE_START
G1 F7200.000
G1 X101.755 Y87.974 E-0.91200
;WIPE_END
G1 E-0.04800 F4200.000
G1 Z0.400 F9000.000
G1 X78.170 Y97.241
G1 Z0.200
G1 E3.20000 F2400.000
M204 S800
G1 F1200.000
G1 X77.155 Y98.185 E0.04344
G1 X76.290 Y97.253 E0.03987
G1 X77.304 Y96.310 E0.04344
G1 X78.129 Y97.197 E0.03799
M204 S1250
G1 E-2.24000 F4200.000
;WIPE_START
G1 F7200.000
G1 X77.155 Y98.185 E-0.76853
G1 X76.979 Y97.995 E-0.14347
;WIPE_END
G1 E-0.04800 F4200.000
G1 Z0.400 F9000.000
G1 X107.067 Y95.607
G1 Z0.200
G1 E3.20000 F2400.000
M204 S800
G1 F1200.000
G1 X109.500 Y93.344 E0.10418
G1 X111.683 Y95.786 E0.10268
G1 X109.296 Y98.005 E0.10218
G1 X107.107 Y95.651 E0.10078
M204 S1250
G1 X107.599 Y95.626 F9000.000
M204 S800
;TYPE:External perimeter
G1 F1200.000
G1 X109.475 Y93.882 E0.08030
G1 X111.155 Y95.761 E0.07903
G1 X109.315 Y97.472 E0.07877
G1 X107.640 Y95.670 E0.07713
M204 S1250
G1 X107.261 Y95.413 F9000.000
G1 E-2.24000 F4200.000
;WIPE_START
G1 F7200.000
G1 X108.819 Y94.522 E-0.91200
;WIPE_END
G1 E-0.04800 F4200.000
G1 Z0.400 F9000.000
G1 X106.696 Y98.376
G1 Z0.200
G1 E3.20000 F2400.000
M204 S800
;TYPE:Perimeter
G1 F1200.000
G1 X105.327 Y99.648 E0.05859
G1 X96.632 Y90.294 E0.40043
G1 X95.313 Y91.520 E0.05644
G1 X94.153 Y90.272 E0.05345
G1 X92.814 Y91.516 E0.05732
G1 X91.452 Y90.051 E0.06271
G1 X90.154 Y91.258 E0.05556
G1 X89.065 Y90.086 E0.05017
G1 X87.673 Y91.380 E0.05957
G1 X86.380 Y89.988 E0.05957
G1 X85.053 Y91.221 E0.05678
G1 X83.852 Y89.929 E0.05531
G1 X82.615 Y91.079 E0.05296
G1 X81.433 Y89.808 E0.05443
G1 X77.629 Y93.344 E0.16286
G1 X78.811 Y94.616 E0.05443
G1 X77.434 Y95.896 E0.05894
G1 X78.703 Y97.261 E0.05844
G1 X77.372 Y98.498 E0.05697
G1 X78.565 Y99.781 E0.05492
G1 X78.329 Y100.001 E0.01012
G1 X75.757 Y97.234 E0.11844
G1 X77.146 Y95.942 E0.05948
G1 X74.604 Y93.208 E0.11705
G1 X75.935 Y91.971 E0.05697
G1 X74.732 Y90.677 E0.05540
G1 X77.295 Y88.294 E0.10974
G1 X75.934 Y86.829 E0.06271
G1 X77.235 Y85.620 E0.05569
G1 X73.490 Y81.592 E0.17245
G1 X75.064 Y80.128 E0.06741
G1 X75.354 Y80.440 E0.01335
G1 X74.128 Y81.580 E0.05250
G1 X76.358 Y83.978 E0.10268
G1 X77.584 Y82.838 E0.05250
G1 X78.809 Y84.156 E0.05641
G1 X81.320 Y81.822 E0.10749
G1 X80.095 Y80.504 E0.05641
G1 X81.443 Y79.251 E0.05770
G1 X78.923 Y76.541 E0.11603
G1 X80.410 Y75.159 E0.06365
G1 X80.700 Y75.471 E0.01335
G1 X79.380 Y76.698 E0.05650
G1 X85.348 Y83.118 E0.27486
G1 X86.668 Y81.891 E0.05650
G1 X89.148 Y84.558 E0.11418
G1 X90.540 Y83.264 E0.05960
G1 X93.036 Y85.949 E0.11496
G1 X94.355 Y84.723 E0.05646
G1 X95.591 Y86.052 E0.05690
G1 X98.821 Y83.050 E0.13828
G1 X100.817 Y81.284 E0.08355
G1 X99.536 Y79.907 E0.05896
G1 X99.848 Y79.617 E0.01335
G1 X101.310 Y81.190 E0.06733
G1 X97.209 Y85.002 E0.17558
G1 X99.421 Y87.382 E0.10188
G1 X100.690 Y86.202 E0.05434
G1 X104.505 Y90.306 E0.17569
G1 X108.436 Y86.652 E0.16828
G1 X108.565 Y86.791 E0.00594
G1 X104.634 Y90.445 E0.16828
G1 X106.888 Y92.870 E0.10380
G1 X112.163 Y87.966 E0.22581
G1 X114.839 Y90.806 E0.12234
G1 X113.476 Y92.073 E0.05837
G1 X114.664 Y93.351 E0.05471
G1 X107.884 Y99.654 E0.29026
G1 X106.736 Y98.420 E0.05283
M204 S1250
G1 X106.676 Y98.909 F9000.000
M204 S800
;TYPE:External perimeter
G1 F1200.000
G1 X105.308 Y100.181 E0.05859
G1 X96.612 Y90.827 E0.40043
G1 X95.294 Y92.053 E0.05644
G1 X94.133 Y90.804 E0.05345
G1 X92.794 Y92.049 E0.05732
G1 X91.433 Y90.584 E0.06271
G1 X90.135 Y91.791 E0.05556
G1 X89.045 Y90.619 E0.05017
G1 X87.654 Y91.913 E0.05957
G1 X86.360 Y90.521 E0.05957
G1 X85.034 Y91.754 E0.05678
G1 X83.833 Y90.462 E0.05531
G1 X82.596 Y91.612 E0.05296
G1 X81.414 Y90.341 E0.05443
G1 X78.162 Y93.364 E0.13922
G1 X79.344 Y94.635 E0.05443
G1 X77.967 Y95.915 E0.05894
G1 X79.236 Y97.280 E0.05844
G1 X77.905 Y98.517 E0.05697
G1 X79.098 Y99.800 E0.05492
G1 X78.309 Y100.533 E0.03377
G1 X75.224 Y97.214 E0.14208
M73 P2 R49
G1 X76.613 Y95.923 E0.05948
G1 X74.071 Y93.189 E0.11705
G1 X75.402 Y91.952 E0.05697
G1 X74.199 Y90.658 E0.05540
G1 X76.763 Y88.275 E0.10974
G1 X75.401 Y86.810 E0.06271
G1 X76.702 Y85.600 E0.05569
G1 X72.957 Y81.572 E0.17245
G1 X75.084 Y79.595 E0.09105
G1 X75.887 Y80.459 E0.03700
G1 X74.661 Y81.599 E0.05250
G1 X76.377 Y83.445 E0.07904
G1 X77.603 Y82.305 E0.05250
G1 X78.829 Y83.623 E0.05641
G1 X80.787 Y81.803 E0.08384
G1 X79.562 Y80.485 E0.05641
G1 X80.910 Y79.232 E0.05770
G1 X78.390 Y76.522 E0.11603
G1 X80.429 Y74.626 E0.08730
G1 X81.233 Y75.490 E0.03700
G1 X79.913 Y76.717 E0.05650
G1 X85.368 Y82.585 E0.25121
G1 X86.688 Y81.358 E0.05650
G1 X89.167 Y84.025 E0.11418
G1 X90.559 Y82.731 E0.05960
G1 X93.056 Y85.416 E0.11496
G1 X94.375 Y84.190 E0.05646
G1 X95.610 Y85.519 E0.05690
G1 X98.568 Y82.770 E0.12661
G1 X100.277 Y81.258 E0.07157
G1 X99.003 Y79.887 E0.05866
G1 X99.868 Y79.084 E0.03700
G1 X101.843 Y81.209 E0.09098
G1 X97.742 Y85.022 E0.17558
G1 X99.441 Y86.849 E0.07824
G1 X100.710 Y85.669 E0.05434
G1 X104.525 Y89.773 E0.17569
G1 X108.456 Y86.119 E0.16828
G1 X109.098 Y86.810 E0.02959
G1 X105.167 Y90.464 E0.16828
G1 X106.908 Y92.337 E0.08015
G1 X112.181 Y87.435 E0.22573
G1 X115.374 Y90.823 E0.14598
G1 X114.009 Y92.093 E0.05845
G1 X115.197 Y93.371 E0.05471
G1 X107.864 Y100.187 E0.31390
G1 X106.717 Y98.953 E0.05283
M204 S1250
G1 X106.301 Y98.770 F9000.000
G1 E-2.24000 F4200.000
;WIPE_START
G1 F7200.000
G1 X105.476 Y100.034 E-0.91200
;WIPE_END
G1 E-0.04800 F4200.000
G1 Z0.400 F9000.000
G1 X113.807 Y91.096
G1 Z0.200
G1 E3.20000 F2400.000
M204 S800
;TYPE:Solid infill
;WIDTH:0.420273
G1 F1200.000
G1 X111.860 Y89.149 E0.08639
G1 X111.583 Y89.406 E0.01185
G1 X113.410 Y91.233 E0.08107
G1 X113.134 Y91.490 E0.01185
G1 X111.307 Y89.663 E0.08107
G1 X111.030 Y89.921 E0.01185
G1 X112.857 Y91.747 E0.08107
G1 X112.580 Y92.005 E0.01185
G1 X110.754 Y90.178 E0.08107
G1 X110.477 Y90.435 E0.01185
G1 X113.538 Y93.496 E0.13585
G1 X113.262 Y93.753 E0.01185
G1 X110.200 Y90.692 E0.13585
G1 X109.924 Y90.949 E0.01185
G1 X112.985 Y94.010 E0.13585
G1 X112.709 Y94.268 E0.01185
G1 X109.647 Y91.206 E0.13585
G1 X109.371 Y91.463 E0.01185
G1 X112.432 Y94.525 E0.13585
G1 X112.156 Y94.782 E0.01185
G1 X109.094 Y91.720 E0.13585
G1 X108.818 Y91.977 E0.01185
G1 X109.388 Y92.548 E0.02531
G1 X109.111 Y92.805 E0.01185
G1 X108.541 Y92.234 E0.02531
G1 X108.264 Y92.492 E0.01185
G1 X108.835 Y93.062 E0.02531
G1 X108.558 Y93.319 E0.01185
G1 X107.988 Y92.749 E0.02531
G1 X107.711 Y93.006 E0.01185
G1 X108.282 Y93.576 E0.02531
G1 X108.005 Y93.833 E0.01185
G1 X107.435 Y93.263 E0.02531
G1 X107.158 Y93.520 E0.01185
G1 X107.729 Y94.090 E0.02531
G1 X107.452 Y94.347 E0.01185
G1 X100.440 Y87.336 E0.31113
G1 X100.164 Y87.593 E0.01185
G1 X107.175 Y94.604 E0.31113
G1 X106.899 Y94.862 E0.01185
G1 X99.887 Y87.850 E0.31113
G1 X99.611 Y88.107 E0.01185
G1 X106.622 Y95.119 E0.31113
G1 X106.346 Y95.376 E0.01185
G1 X96.800 Y85.830 E0.42360
G1 X96.523 Y86.087 E0.01185
G1 X107.785 Y97.348 E0.49972
G1 X108.531 Y98.151 E0.03439
G1 X108.284 Y98.381 E0.01059
G1 X96.246 Y86.344 E0.53414
G1 X95.970 Y86.601 E0.01185
G1 X108.007 Y98.638 E0.53414
G1 X107.918 Y98.721 E0.00384
G1 X106.730 Y97.444 E0.05475
G1 X106.496 Y97.661 E0.01001
G1 X95.693 Y86.858 E0.47936
G1 X95.557 Y86.985 E0.00586
G1 X94.321 Y85.656 E0.05694
G1 X94.133 Y85.831 E0.00807
